packages/icons/src/arrow-down-left-fill.svg

<svg width="24" height="24" viewBox="0 0 24 24" fill="none" xmlns="http://www.w3.org/2000/svg">
<path fill-rule="evenodd" clip-rule="evenodd" d="M5.5 18.5H16.5V15.5H10.6171L18.7071 7.40995L16.59 5.29285L8.5 13.3828V7.49995H5.5V18.5Z" fill="black"/>
</svg>

<svg xmlns="http://www.w3.org/2000/svg" width="24" height="24" fill="none" viewBox="0 0 24 24">
  <path fill="#000" fill-rule="evenodd" d="M5.5 18.5h11v-3h-5.883l8.09-8.09-2.117-2.117-8.09 8.09V7.5h-3v11Z" clip-rule="evenodd"/>
</svg>
